Newaita-dark/apps/16/preferences-desktop-online-accounts.svg

<?xml version="1.0" encoding="UTF-8"?>
<svg xmlns="http://www.w3.org/2000/svg" xmlns:xlink="http://www.w3.org/1999/xlink" width="16pt" height="16pt" viewBox="0 0 16 16" version="1.1">
<defs>
<linearGradient id="linear0" gradientUnits="userSpaceOnUse" x1="254" y1="233.5" x2="254" y2="254.666672" gradientTransform="matrix(0.031253,0,0,0.031253,-0.00000190753,6.719393)">
<stop offset="0" style="stop-color:rgb(0%,0%,0%);stop-opacity:0.27451;"/>
<stop offset="1" style="stop-color:rgb(0%,0%,0%);stop-opacity:0;"/>
</linearGradient>
<radialGradient id="radial0" gradientUnits="userSpaceOnUse" cx="450.908936" cy="189.579361" fx="450.908936" fy="189.579361" r="21.166656" gradientTransform="matrix(0.0000000870852,-0.0390662,-0.0703192,-0.0000000507693,24.411523,31.797666)">
<stop offset="0" style="stop-color:rgb(0%,0%,0%);stop-opacity:0.313725;"/>
<stop offset="0.222222" style="stop-color:rgb(0%,0%,0%);stop-opacity:0.27451;"/>
<stop offset="1" style="stop-color:rgb(0%,0%,0%);stop-opacity:0;"/>
</radialGradient>
<radialGradient id="radial1" gradientUnits="userSpaceOnUse" cx="450.908936" cy="189.579361" fx="450.908936" fy="189.579361" r="21.166656" gradientTransform="matrix(-0.0000000870852,0.0390662,0.0703192,0.0000000507693,-8.865766,-3.763739)">
<stop offset="0" style="stop-color:rgb(0%,0%,0%);stop-opacity:0.313725;"/>
<stop offset="0.222222" style="stop-color:rgb(0%,0%,0%);stop-opacity:0.27451;"/>
<stop offset="1" style="stop-color:rgb(0%,0%,0%);stop-opacity:0;"/>
</radialGradient>
<radialGradient id="radial2" gradientUnits="userSpaceOnUse" cx="450.908936" cy="189.579361" fx="450.908936" fy="189.579361" r="21.166656" gradientTransform="matrix(-0.0000000870852,-0.0390662,0.0703192,-0.0000000507693,-8.865766,31.797666)">
<stop offset="0" style="stop-color:rgb(0%,0%,0%);stop-opacity:0.313725;"/>
<stop offset="0.222222" style="stop-color:rgb(0%,0%,0%);stop-opacity:0.27451;"/>
<stop offset="1" style="stop-color:rgb(0%,0%,0%);stop-opacity:0;"/>
</radialGradient>
<radialGradient id="radial3" gradientUnits="userSpaceOnUse" cx="450.908936" cy="189.579361" fx="450.908936" fy="189.579361" r="21.166656" gradientTransform="matrix(0.0000000870852,0.0390662,-0.0703192,0.0000000507693,24.411522,-3.76374)">
<stop offset="0" style="stop-color:rgb(0%,0%,0%);stop-opacity:0.313725;"/>
<stop offset="0.222222" style="stop-color:rgb(0%,0%,0%);stop-opacity:0.27451;"/>
<stop offset="1" style="stop-color:rgb(0%,0%,0%);stop-opacity:0;"/>
</radialGradient>
<linearGradient id="linear1" gradientUnits="userSpaceOnUse" x1="960" y1="1695.118164" x2="960" y2="175.118118" gradientTransform="matrix(0.00826902,0,0,0.00826902,0,0)">
<stop offset="0" style="stop-color:rgb(14.901961%,77.647059%,85.490196%);stop-opacity:1;"/>
<stop offset="1" style="stop-color:rgb(30.196078%,81.568627%,88.235294%);stop-opacity:1;"/>
</linearGradient>
</defs>
<g id="surface1">
<path style=" stroke:none;fill-rule:nonzero;fill:url(#linear0);" d="M 4.300781 14.015625 L 11.246094 14.015625 L 11.246094 14.679688 L 4.300781 14.679688 Z M 4.300781 14.015625 "/>
<path style=" stroke:none;fill-rule:nonzero;fill:url(#radial0);" d="M 11.246094 14.015625 L 12.570312 14.015625 L 12.570312 13.355469 L 11.246094 13.355469 Z M 11.246094 14.015625 "/>
<path style=" stroke:none;fill-rule:nonzero;fill:url(#radial1);" d="M 4.300781 14.015625 L 2.976562 14.015625 L 2.976562 14.679688 L 4.300781 14.679688 Z M 4.300781 14.015625 "/>
<path style=" stroke:none;fill-rule:nonzero;fill:url(#radial2);" d="M 4.300781 14.015625 L 2.976562 14.015625 L 2.976562 13.355469 L 4.300781 13.355469 Z M 4.300781 14.015625 "/>
<path style=" stroke:none;fill-rule:nonzero;fill:url(#radial3);" d="M 11.246094 14.015625 L 12.570312 14.015625 L 12.570312 14.679688 L 11.246094 14.679688 Z M 11.246094 14.015625 "/>
<path style=" stroke:none;fill-rule:nonzero;fill:url(#linear1);" d="M 7.9375 1.449219 C 6.289062 1.449219 4.960938 2.777344 4.960938 4.425781 C 4.960938 6.074219 6.289062 7.402344 7.9375 7.402344 C 9.585938 7.402344 10.914062 6.074219 10.914062 4.425781 C 10.914062 2.777344 9.585938 1.449219 7.9375 1.449219 Z M 5.679688 8.355469 C 4.261719 8.75 3.308594 9.507812 3.308594 10.378906 L 3.308594 13.355469 C 3.308594 13.722656 3.601562 14.015625 3.96875 14.015625 L 11.90625 14.015625 C 12.273438 14.015625 12.570312 13.722656 12.570312 13.355469 L 12.570312 10.378906 C 12.570312 9.507812 11.613281 8.75 10.195312 8.355469 C 9.648438 8.988281 8.84375 9.386719 7.9375 9.386719 C 7.035156 9.386719 6.226562 8.988281 5.679688 8.355469 Z M 5.679688 8.355469 "/>
<path style=" stroke:none;fill-rule:nonzero;fill:rgb(100%,100%,100%);fill-opacity:0.235294;" d="M 7.9375 1.449219 C 6.289062 1.449219 4.960938 2.777344 4.960938 4.425781 C 4.960938 4.453125 4.960938 4.480469 4.960938 4.507812 C 5.007812 2.898438 6.316406 1.613281 7.9375 1.613281 C 9.558594 1.613281 10.871094 2.898438 10.914062 4.507812 C 10.914062 4.480469 10.914062 4.453125 10.914062 4.425781 C 10.914062 2.777344 9.585938 1.449219 7.9375 1.449219 Z M 5.679688 8.355469 C 4.261719 8.75 3.308594 9.507812 3.308594 10.378906 L 3.308594 10.542969 C 3.308594 9.671875 4.261719 8.914062 5.679688 8.519531 C 6.226562 9.152344 7.035156 9.550781 7.9375 9.550781 C 8.84375 9.550781 9.648438 9.152344 10.195312 8.519531 C 11.613281 8.914062 12.570312 9.671875 12.570312 10.542969 L 12.570312 10.378906 C 12.570312 9.507812 11.613281 8.75 10.195312 8.355469 C 9.648438 8.988281 8.84375 9.386719 7.9375 9.386719 C 7.035156 9.386719 6.226562 8.988281 5.679688 8.355469 Z M 5.679688 8.355469 "/>
<path style=" stroke:none;fill-rule:nonzero;fill:rgb(0%,0%,0%);fill-opacity:0.235294;" d="M 4.960938 4.355469 C 4.960938 4.378906 4.960938 4.402344 4.960938 4.425781 C 4.960938 6.074219 6.289062 7.402344 7.9375 7.402344 C 9.585938 7.402344 10.914062 6.074219 10.914062 4.425781 C 10.914062 4.402344 10.914062 4.378906 10.914062 4.355469 C 10.878906 5.972656 9.5625 7.261719 7.9375 7.261719 C 6.3125 7.261719 5 5.972656 4.960938 4.355469 Z M 3.308594 13.21875 L 3.308594 13.355469 C 3.308594 13.722656 3.601562 14.015625 3.96875 14.015625 L 11.90625 14.015625 C 12.273438 14.015625 12.570312 13.722656 12.570312 13.355469 L 12.570312 13.21875 C 12.570312 13.582031 12.273438 13.878906 11.90625 13.878906 L 3.96875 13.878906 C 3.601562 13.878906 3.308594 13.582031 3.308594 13.21875 Z M 3.308594 13.21875 "/>
<path style=" stroke:none;fill-rule:nonzero;fill:rgb(12.941177%,12.941177%,12.941177%);fill-opacity:1;" d="M 7.9375 1.398438 C 6.261719 1.398438 4.910156 2.75 4.910156 4.425781 C 4.910156 6.101562 6.261719 7.453125 7.9375 7.453125 C 9.613281 7.453125 10.964844 6.101562 10.964844 4.425781 C 10.964844 2.75 9.613281 1.398438 7.9375 1.398438 Z M 7.9375 1.5 C 9.558594 1.5 10.863281 2.804688 10.863281 4.425781 C 10.863281 6.046875 9.558594 7.351562 7.9375 7.351562 C 6.316406 7.351562 5.011719 6.046875 5.011719 4.425781 C 5.011719 2.804688 6.316406 1.5 7.9375 1.5 Z M 10.195312 8.304688 C 10.179688 8.304688 10.164062 8.3125 10.15625 8.320312 C 9.621094 8.941406 8.828125 9.335938 7.9375 9.335938 C 7.050781 9.335938 6.253906 8.941406 5.71875 8.320312 C 5.707031 8.308594 5.6875 8.300781 5.667969 8.304688 C 4.953125 8.503906 4.355469 8.792969 3.929688 9.148438 C 3.507812 9.503906 3.257812 9.925781 3.257812 10.378906 L 3.257812 13.355469 C 3.257812 13.75 3.574219 14.066406 3.96875 14.066406 L 11.90625 14.066406 C 12.300781 14.066406 12.621094 13.75 12.621094 13.355469 L 12.621094 10.378906 C 12.621094 9.925781 12.371094 9.503906 11.945312 9.148438 C 11.523438 8.792969 10.921875 8.503906 10.207031 8.304688 C 10.203125 8.304688 10.199219 8.304688 10.195312 8.304688 Z M 5.664062 8.414062 C 6.21875 9.042969 7.03125 9.4375 7.9375 9.4375 C 8.84375 9.4375 9.65625 9.042969 10.210938 8.414062 C 10.902344 8.609375 11.480469 8.890625 11.882812 9.226562 C 12.289062 9.566406 12.519531 9.960938 12.519531 10.378906 L 12.519531 13.355469 C 12.519531 13.695312 12.246094 13.964844 11.90625 13.964844 L 3.96875 13.964844 C 3.628906 13.964844 3.359375 13.695312 3.359375 13.355469 L 3.359375 10.378906 C 3.359375 9.960938 3.585938 9.566406 3.996094 9.226562 C 4.398438 8.890625 4.976562 8.609375 5.664062 8.414062 Z M 5.664062 8.414062 "/>
</g>
</svg>

<svg xmlns="http://www.w3.org/2000/svg" width="16pt" height="16pt" viewBox="0 0 16 16"><defs><linearGradient id="a" gradientUnits="userSpaceOnUse" x1="254" y1="233.5" x2="254" y2="254.667" gradientTransform="matrix(.03125 0 0 .03125 0 6.72)"><stop offset="0" stop-opacity=".275"/><stop offset="1" stop-opacity="0"/></linearGradient><radialGradient id="b" gradientUnits="userSpaceOnUse" cx="450.909" cy="189.579" fx="450.909" fy="189.579" r="21.167" gradientTransform="matrix(0 -.03907 -.07032 0 24.412 31.798)"><stop offset="0" stop-opacity=".314"/><stop offset=".222" stop-opacity=".275"/><stop offset="1" stop-opacity="0"/></radialGradient><radialGradient id="c" gradientUnits="userSpaceOnUse" cx="450.909" cy="189.579" fx="450.909" fy="189.579" r="21.167" gradientTransform="matrix(0 .03907 .07032 0 -8.866 -3.764)"><stop offset="0" stop-opacity=".314"/><stop offset=".222" stop-opacity=".275"/><stop offset="1" stop-opacity="0"/></radialGradient><radialGradient id="d" gradientUnits="userSpaceOnUse" cx="450.909" cy="189.579" fx="450.909" fy="189.579" r="21.167" gradientTransform="matrix(0 -.03907 .07032 0 -8.866 31.798)"><stop offset="0" stop-opacity=".314"/><stop offset=".222" stop-opacity=".275"/><stop offset="1" stop-opacity="0"/></radialGradient><radialGradient id="e" gradientUnits="userSpaceOnUse" cx="450.909" cy="189.579" fx="450.909" fy="189.579" r="21.167" gradientTransform="matrix(0 .03907 -.07032 0 24.412 -3.764)"><stop offset="0" stop-opacity=".314"/><stop offset=".222" stop-opacity=".275"/><stop offset="1" stop-opacity="0"/></radialGradient><linearGradient id="f" gradientUnits="userSpaceOnUse" x1="960" y1="1695.118" x2="960" y2="175.118" gradientTransform="rotate(.882) scale(.00827)"><stop offset="0" stop-color="#26c6da"/><stop offset="1" stop-color="#4dd0e1"/></linearGradient></defs><path d="M4.3 14.016h6.946v.664H4.301zm0 0" fill="url(#a)"/><path d="M11.246 14.016h1.324v-.66h-1.324zm0 0" fill="url(#b)"/><path d="M4.3 14.016H2.978v.664H4.3zm0 0" fill="url(#c)"/><path d="M4.3 14.016H2.978v-.66H4.3zm0 0" fill="url(#d)"/><path d="M11.246 14.016h1.324v.664h-1.324zm0 0" fill="url(#e)"/><path d="M7.938 1.45A2.97 2.97 0 0 0 4.96 4.425a2.97 2.97 0 0 0 2.976 2.976 2.97 2.97 0 0 0 2.977-2.976 2.97 2.97 0 0 0-2.976-2.977zM5.68 8.354c-1.418.395-2.371 1.153-2.371 2.024v2.976c0 .368.293.66.66.66h7.937a.66.66 0 0 0 .664-.66V10.38c0-.871-.957-1.629-2.375-2.024a2.968 2.968 0 0 1-2.258 1.032c-.902 0-1.71-.399-2.257-1.032zm0 0" fill="url(#f)"/><path d="M7.938 1.45A2.97 2.97 0 0 0 4.96 4.425v.082a2.974 2.974 0 0 1 2.976-2.895 2.972 2.972 0 0 1 2.977 2.895v-.082a2.97 2.97 0 0 0-2.976-2.977zM5.68 8.354c-1.418.395-2.371 1.153-2.371 2.024v.164c0-.871.953-1.629 2.37-2.023a2.974 2.974 0 0 0 2.258 1.03c.907 0 1.711-.398 2.258-1.03 1.418.394 2.375 1.152 2.375 2.023v-.164c0-.871-.957-1.629-2.375-2.024a2.968 2.968 0 0 1-2.258 1.032c-.902 0-1.71-.399-2.257-1.032zm0 0" fill="#fff" fill-opacity=".235"/><path d="M4.96 4.355v.07a2.97 2.97 0 0 0 2.978 2.977 2.97 2.97 0 0 0 2.976-2.976v-.07a2.969 2.969 0 0 1-2.976 2.906A2.972 2.972 0 0 1 4.96 4.355zM3.31 13.22v.136c0 .368.293.66.66.66h7.937a.66.66 0 0 0 .664-.66v-.136c0 .363-.297.66-.664.66H3.97a.66.66 0 0 1-.66-.66zm0 0" fill-opacity=".235"/><path d="M7.938 1.398A3.022 3.022 0 0 0 4.91 4.426a3.022 3.022 0 0 0 3.027 3.027 3.022 3.022 0 0 0 3.028-3.027 3.022 3.022 0 0 0-3.027-3.028zm0 .102a2.92 2.92 0 0 1 2.925 2.926 2.92 2.92 0 0 1-2.925 2.926 2.92 2.92 0 0 1-2.926-2.926A2.92 2.92 0 0 1 7.938 1.5zm2.257 6.805a.06.06 0 0 0-.039.015 2.918 2.918 0 0 1-2.219 1.016A2.924 2.924 0 0 1 5.72 8.32a.058.058 0 0 0-.051-.015c-.715.199-1.313.488-1.738.843-.422.356-.672.778-.672 1.23v2.977c0 .395.316.711.71.711h7.938a.712.712 0 0 0 .715-.71v-2.977c0-.453-.25-.875-.676-1.23-.422-.356-1.023-.645-1.738-.844h-.012zm-4.53.11a3.02 3.02 0 0 0 2.272 1.023 3.02 3.02 0 0 0 2.274-1.024c.691.195 1.27.477 1.672.813.406.34.637.734.637 1.152v2.976c0 .34-.274.61-.614.61H3.97c-.34 0-.61-.27-.61-.61V10.38c0-.418.227-.813.637-1.152.402-.336.98-.618 1.668-.813zm0 0" fill="#212121"/></svg>
